X:1
T:REM
M:4/4
L:1/8
Q:1/4=100
K:Am
E2 A2 B2 c2 | B2 A2 E2 z2 | A2 c2 B2 A2 | G4 z4 |
E2 A2 c2 d2 | e4 d2 c2 | B2 A2 G2 A2 | A4 z4 |
c2 d2 e2 d2 | c2 B2 A2 G2 | A2 B2 c2 B2 | A4 z4 |
E2 G2 A2 B2 | c4 B2 A2 | G2 A2 E2 z2 | A6 z2 |
